resources/icons/svg/artnetplugin.svg

<?xml version="1.0" encoding="UTF-8"?>
<svg id="Layer_2" data-name="Layer 2" xmlns="http://www.w3.org/2000/svg" version="1.1" viewBox="0 0 256 256">
  <defs>
    <style>
      .cls-1 {
        fill: #fff;
        fill-rule: evenodd;
        stroke-width: 0px;
      }

      .cls-2 {
        isolation: isolate;
        opacity: .6;
      }
    </style>
  </defs>
  <g class="cls-2">
    <path class="cls-1" d="M50.2,115.9h-7.5l27.9-60.6h8.5l27.8,60.6h-7.6l-8.6-19h-32l-8.5,19h0ZM88.4,91.4l-13.6-30.4-13.5,30.4h27.1ZM118.4,61.3v54.7h-7v-60.7h19.3c4.3,0,7.7.3,10.3.8s4.9,1.4,7,2.7c2.9,1.7,5.1,4,6.8,6.8,1.7,2.8,2.5,5.8,2.5,9,0,4.7-1.7,8.7-5,12.1s-7.5,5.2-12.4,5.5l17.4,23.7h-8.3l-21.4-29.2h6.8c4.6,0,8.3-1.1,11.1-3.4,2.9-2.2,4.3-5.1,4.3-8.7s-.4-4.1-1.3-5.8c-.9-1.7-2.2-3.3-3.9-4.6-1.4-1.1-3.1-1.8-5.1-2.3s-5.6-.7-10.7-.7h-10.4Z"/>
    <polygon class="cls-1" points="203 201.5 193 201.5 193 64.2 163.6 64.2 163.6 54.5 233.6 54.5 233.6 64.2 203 64.2 203 201.5"/>
    <polygon class="cls-1" points="141.3 156.1 182.5 156.1 182.5 164.2 141.3 164.2 141.3 193.5 182.5 193.5 182.5 201.5 131.6 201.5 131.6 119.1 182.5 119.1 182.5 127.2 141.3 127.2 141.3 156.1"/>
    <polygon class="cls-1" points="109.3 191.7 108.1 119.1 118 119.1 118 201.5 106.1 201.5 50.5 128.9 51.6 201.5 41.8 201.5 41.8 119.1 53.8 119.1 109.3 191.7"/>
  </g>
</svg>

<?xml version="1.0" encoding="utf-8"?>
<!-- Generator: Adobe Illustrator 27.3.1, SVG Export Plug-In . SVG Version: 6.00 Build 0)  -->
<svg version="1.1" id="Layer_2_00000066473705236620084990000006636565101355960758_"
	 xmlns="http://www.w3.org/2000/svg" xmlns:xlink="http://www.w3.org/1999/xlink" x="0px" y="0px" viewBox="0 0 256 256"
	 style="enable-background:new 0 0 256 256;" xml:space="preserve">
<style type="text/css">
	.st0{fill-rule:evenodd;clip-rule:evenodd;fill:#224458;}
</style>
<g>
	<path class="st0" d="M50.2,115.9h-7.5l27.9-60.6h8.5l27.8,60.6h-7.6l-8.6-19h-32L50.2,115.9L50.2,115.9z M88.4,91.4L74.8,61
		L61.3,91.4H88.4L88.4,91.4z M118.4,61.3V116h-7V55.3h19.3c4.3,0,7.7,0.3,10.3,0.8s4.9,1.4,7,2.7c2.9,1.7,5.1,4,6.8,6.8
		c1.7,2.8,2.5,5.8,2.5,9c0,4.7-1.7,8.7-5,12.1s-7.5,5.2-12.4,5.5l17.4,23.7H149l-21.4-29.2h6.8c4.6,0,8.3-1.1,11.1-3.4
		c2.9-2.2,4.3-5.1,4.3-8.7c0-2.1-0.4-4.1-1.3-5.8c-0.9-1.7-2.2-3.3-3.9-4.6c-1.4-1.1-3.1-1.8-5.1-2.3s-5.6-0.7-10.7-0.7L118.4,61.3
		L118.4,61.3z"/>
	<polygon class="st0" points="203,201.5 193,201.5 193,64.2 163.6,64.2 163.6,54.5 233.6,54.5 233.6,64.2 203,64.2 	"/>
	<polygon class="st0" points="141.3,156.1 182.5,156.1 182.5,164.2 141.3,164.2 141.3,193.5 182.5,193.5 182.5,201.5 131.6,201.5 
		131.6,119.1 182.5,119.1 182.5,127.2 141.3,127.2 	"/>
	<polygon class="st0" points="109.3,191.7 108.1,119.1 118,119.1 118,201.5 106.1,201.5 50.5,128.9 51.6,201.5 41.8,201.5 
		41.8,119.1 53.8,119.1 	"/>
</g>
</svg>
